X: 18874
T: In Memory Of Chris Langan
R: reel
M: 4/4
K: Dmajor
B,3 D A,B,DF|EGFD EDB,A,|B,3 D A,B,DF|EAFD EDB,D|
EFGA BF F2|dBAF EDB,A,|B,3 D A,B,DF|EAFE D2 CD|
B,3 D A,B,DF|EGFD EDB,A,|B,3 D A,B,DF|EAFD EDB,D|
EFGA BF F2|dBAF EDB,A,|B,3 D A,B,DF|EAFE D3 E||
FA A/A/A Bd d/d/d|e2 ef edBc|dBAd BdAF|FEED EDB,D|
EFGA BFF2|dBAF EDB,A,|B,3 D A,B,DF|EAFE D3 E|
FA A2 Bdd2|e3f edBc|dBAd BdAF|FEED EDB,D|
EFGA BFF2|dBAF EDB,A,|B,3 D A,B,DF|EAFE D2 CD||

